components/2.0/icon/icons/icon-linepath-90-22px.svg

<svg width="22" height="22" xmlns="http://www.w3.org/2000/svg"><path d="M18 2c-1.3 0-2.4.8-2.8 2H12c-1 0-2 1-2 2v10H6.8c-.4-1.2-1.5-2-2.8-2-1.7 0-3 1.3-3 3s1.3 3 3 3c1.3 0 2.4-.8 2.8-2H10c1 0 2-1 2-2V6h3.2c.4 1.2 1.5 2 2.8 2 1.7 0 3-1.3 3-3s-1.3-3-3-3z" fill="#3D4752" fill-rule="evenodd"/></svg>

<?xml version="1.0" encoding="UTF-8" standalone="no"?>
<svg width="22px" height="22px" viewBox="0 0 22 22" version="1.1" xmlns="http://www.w3.org/2000/svg" xmlns:xlink="http://www.w3.org/1999/xlink" xmlns:sketch="http://www.bohemiancoding.com/sketch/ns">
    <!-- Generator: Sketch 3.4.4 (17249) - http://www.bohemiancoding.com/sketch -->
    <title>icon-linepath-90-22px</title>
    <desc>Created with Sketch.</desc>
    <defs></defs>
    <g id="22px" stroke="none" stroke-width="1" fill="none" fill-rule="evenodd" sketch:type="MSPage">
        <g id="icon-linepath-90-22px" sketch:type="MSArtboardGroup" fill="#3D4752">
            <path d="M18,2 C16.7,2 15.6,2.8 15.2,4 L12,4 C10.9,4 10,4.9 10,6 L10,16 L6.8,16 C6.4,14.8 5.3,14 4,14 C2.3,14 1,15.3 1,17 C1,18.7 2.3,20 4,20 C5.3,20 6.4,19.2 6.8,18 L10,18 C11.1,18 12,17.1 12,16 L12,6 L15.2,6 C15.6,7.2 16.7,8 18,8 C19.7,8 21,6.7 21,5 C21,3.3 19.7,2 18,2 L18,2 Z" id="Shape" sketch:type="MSShapeGroup"></path>
        </g>
    </g>
</svg>
